icons/lines/camera-slash.svg

<svg xmlns="http://www.w3.org/2000/svg" width="24" height="24" viewBox="0 0 24 24" fill="none" stroke="currentColor" stroke-width="2" stroke-linecap="round" stroke-linejoin="round" >
  <path d="M6 10H9"/>
  <path d="M6.75977 22H17.2398C19.9998 22 21.0998 20.31 21.2298 18.25L21.7498 9.99001C21.8098 9.06001 21.5198 8.19001 21.0098 7.51001"/>
  <path d="M18.0002 6C17.3902 6 16.8302 5.65 16.5502 5.11L15.8302 3.66C15.3702 2.75 14.1702 2 13.1502 2H10.8602C9.83017 2 8.63017 2.75 8.17017 3.66L7.45017 5.11C7.17017 5.65 6.61017 6 6.00017 6C3.83017 6 2.11017 7.83 2.25017 9.99L2.77017 18.25C2.82017 19.07 3.03017 19.84 3.44017 20.46"/>
  <path d="M10 17.31C10.55 17.74 11.25 18 12 18C13.79 18 15.25 16.54 15.25 14.75C15.25 14.11 15.07 13.52 14.75 13.02"/>
  <path d="M22 2L2 22"/>
  </svg>

<svg xmlns="http://www.w3.org/2000/svg" width="24" height="24" viewBox="0 0 24 24" fill="none" stroke="currentColor" stroke-width="2" stroke-linecap="round" stroke-linejoin="round">
  <path d="M10 17.31a3.25 3.25 0 0 0 4.75-4.29" />
  <path d="M18 6a1.64 1.64 0 0 1-1.45-.89l-.72-1.45C15.37 2.75 14.17 2 13.15 2h-2.29c-1.03 0-2.23.75-2.69 1.66l-.72 1.45A1.64 1.64 0 0 1 6 6a3.753 3.753 0 0 0-3.75 3.99l.52 8.26c.05.82.26 1.59.67 2.21" />
  <path d="M22 2 2 22" />
  <path d="M6 10h3" />
  <path d="M6.76 22h10.48c2.76 0 3.86-1.69 3.99-3.75l.52-8.26a3.73 3.73 0 0 0-.74-2.48" />
</svg>
